X: 36954
T: Showman's Fancy, The
R: hornpipe
M: 4/4
K: Dmajor
(3FG^G|:A^GAB Adcd|Bg gf ecdB|A^GAB AFDF|E2EF E2(3FG^G|
A^GAB Acd2|Bg gf edcB|A2(3fga gece|1 d2dc d2FG:|2 d2dc d2 (3cd^d||
|:(e2 e)f gece|dcde fga2|(3gag (3fgf (3efe (3ded|(3cdc (3BcB AGFG|
A^GAB Acd2|Bg gf edcB|Adfa gece|1 d2dc d2(3cd^d:|2 dfec d2||

